packages/core/src/svgs/tokens/branded/SYNC.svg

<svg width="24" height="24" viewBox="0 0 24 24" fill="none" xmlns="http://www.w3.org/2000/svg">
<path d="M16.5625 5.91873L17.625 3.24374C17 2.83125 15.1313 2 12.6813 2C9.61879 2 7.01875 3.74999 7.01875 6.37499C6.98056 7.32131 7.31747 8.24446 7.95624 8.94373L7.91249 8.98748C7.38125 9.50621 6.375 10.4938 6.375 12.15C6.375 13.8563 7.38749 15.3063 10.65 16.0249C13.25 16.6249 13.8749 17.1312 13.8749 17.7937C13.8749 18.4563 12.8063 19.1687 11.3937 19.1687C9.98745 19.1687 8.18124 18.3311 7.5125 17.7937L6.375 20.5749C7.0625 21.0499 9.03748 22 11.3937 22C14.3312 22 16.9812 20.6249 16.9812 17.5499C16.9427 16.6051 16.5757 15.7032 15.9437 15C16.4531 14.6322 16.8702 14.1513 17.1618 13.5948C17.4537 13.0384 17.6122 12.4218 17.625 11.7937C17.625 9.58116 15.4999 8.43747 13.075 7.87498C10.65 7.31247 10.125 6.86248 10.125 6.14998C10.125 5.43748 11.1 4.84998 12.6813 4.84998C14.2624 4.84998 15.4937 5.28748 16.5562 5.91873H16.5625ZM10.7125 10.125L12.8375 10.6937C13.3999 10.8375 14.5 11.35 14.5 12.2187C14.5 13.0874 13.7062 13.6875 13.3124 13.8749L11.325 13.3874C10.7125 13.1875 9.49994 12.5938 9.49994 11.8124C9.49994 11.0249 10.3125 10.3625 10.7125 10.125Z" fill="url(#paint0_linear_364_11589)"/>
<defs>
<linearGradient id="paint0_linear_364_11589" x1="15.616" y1="4.32141" x2="3.52083" y2="12.8745" gradientUnits="userSpaceOnUse">
<stop stop-color="#2ABECD"/>
<stop offset="1" stop-color="#4F69D4"/>
</linearGradient>
</defs>
</svg>

<svg xmlns="http://www.w3.org/2000/svg" width="24" height="24" fill="none" viewBox="0 0 24 24">
    <path fill="url(#SYNC__a)" d="m16.563 5.919 1.062-2.675C17 2.83 15.131 2 12.681 2 9.62 2 7.02 3.75 7.02 6.375c-.038.946.298 1.87.937 2.569l-.044.043c-.53.52-1.537 1.507-1.537 3.163 0 1.706 1.012 3.156 4.275 3.875 2.6.6 3.225 1.106 3.225 1.769s-1.069 1.375-2.481 1.375c-1.407 0-3.213-.838-3.881-1.375l-1.138 2.78C7.063 21.05 9.037 22 11.394 22c2.937 0 5.587-1.375 5.587-4.45A4.06 4.06 0 0 0 15.944 15a4.05 4.05 0 0 0 1.681-3.206c0-2.213-2.125-3.357-4.55-3.919-2.425-.563-2.95-1.013-2.95-1.725s.975-1.3 2.556-1.3 2.813.437 3.875 1.069zm-5.85 4.206 2.125.569c.562.143 1.662.656 1.662 1.525s-.794 1.469-1.188 1.656l-1.987-.488c-.612-.2-1.825-.793-1.825-1.575 0-.787.813-1.45 1.213-1.687"/>
    <defs>
        <linearGradient id="SYNC__a" x1="15.616" x2="3.521" y1="4.321" y2="12.874" gradientUnits="userSpaceOnUse">
            <stop stop-color="#2ABECD"/>
            <stop offset="1" stop-color="#4F69D4"/>
        </linearGradient>
    </defs>
</svg>
